X:1
T:Student Quartet
T:Student Quartet
T:Joe Hisaishi
C:Joe Hisaishi
%%score [ 1 2 3 4 ]
L:1/8
Q:1/4=120
M:4/4
K:G
V:1 treble nm="Violin" snm="Vln."
V:2 treble nm="Violin" snm="Vln."
V:3 alto nm="Viola" snm="Vla."
V:4 bass nm="Violoncello" snm="Vc."
V:1
!f! D2 ||"^A" !>![DBg] z G4 !turn!G2 | !>!d z d4 !turn!d2 | !>!g z g4 !turn!g2 | d'8 | %5
 z2!mp! .e2 .e2 .d2 | .d2 .c2 .c2 .B2 | z!mf! .e.e.e (e.d).d.d | (d.c).c.c (c.B).B.B | %9
 A2 (5:4:5(A/B/A/^G/A/) (^A.B).c.=A | GFAF D!f! z !>!d2 ||"^B" !>![DBg] z G4 !turn!G2 | %12
 !>!d z d4 !turn!d2 | !>!g z g4 !turn!g2 | d'8 | z e'd'c' ba^ga | z ^d'c'b agfg | z c'ba gfef | %18
!mf! !>![DBg] z G4 !turn!G2 | d z d4 !turn!d2 |!mf!!>(! g3!mp! B!>)! c^cd^d | (e.c).A.e (d.c).A.F | %22
 G z D z (B,.D).G.B ||"^C"!p! c2- c/(B/A/G/) .F.D.D.D | (e3 d/B/) G2 z D | %25
 c2- c/(B/A/G/) .F.^D.D.D | e2- e/(B/G/F/) .E!<(!.G.G.G!<)! |!mf! g2- g/(f/e/d/) .^c._B.B.B | %28
 g2- g/(f/e/d/) .^c._B.B.B | (Pe.d)(Pf.e) (Pg.f)(Pa.g) | f2- f/A/d/f/ (a.g).e.^c | %31
!f! d [fd']2 [fd']2 [fd']2 [fd'] | [fd'] [fd']2 [fd']2 [fd']2 [fd'] | %33
 [ed'] [ed']2 [ed']2 [ed']2 [ed'] | [e^c'] [ec']2 [ec']2 [ec']2 [ec'] | d'2- d'(a/f/) .d.f.d.A | %36
 (!>!^A.B)(!>!^d.e) (!>!f.g)(!>!^a.b) | d4 fede | e4 d2 z!mp! f ||"^D" (f.^e).g.f .=e.d.^c.B | %40
 (^A.B).a.g (f/g/e- e2) | (e.^d).f.e .=d.^c.B.A | (^G.A).g.f (e/f/d- d2) | z f (g/f/e/f/) ^a4 | %44
 z f (g/f/e/f/) b4 | z ^c (d/c/=c/^c/) (a.^g).f.a |"_cresc." (^g.^e).d.^c (B.A).^G.^E | F8 || %48
"^E"!f! .[Af].[Af].[Af].[Af] .[Af].[Af].[Af].[Af] | .[Bf].[Bf].[Bf].[Bf] .[Bf].[Bf].[Bf].[Bf] | %50
 z8 | z8 | z8 | z8 | z8 | z8 | z8 |] %57
V:2
!f! D2 || !//![B,D]8 | !//![CD]8 | !//![B,D]8 | !//![CD]8 |!mp! z czc z czG | z AzA z FzG | %7
 z!mf! .G.G.G (G.G).G.G | (G.F).F.F (F.F).E.E | z EEE z EEE | z DDD D!f! z !>!D2 || !//![B,D]8 | %12
 !//![CD]8 | !//![B,D]8 | !//![D=F]8 | z cBA GF^EF | z BAG FE^DE | z AGF EDCD |!mf! !//![B,D]8 | %19
 !//![CD]8 |!mf!!>(! G3!mp! B,!>)! C^CD^D | z EEE z FDD | D z B, z G, z z2 || z!p! DDD D2 z2 | %24
 z DGD D2 z2 | z DDD C2 z2 | z EEE E2 z2 |!mf! A/B/^c/d/ e z E/F/G/F/ E/D/^C/D/ | %28
 A/B/^c/d/ e z E/F/G/F/ E/D/^C/D/ | FFAA BBEE | DEFF ^CCCE |!f! D d2 d2 d2 d | d d2 d2 d2 d | %33
 [GB] [GB]2 [GB]2 [GB]2 [GB] | [GA] [GA]2 [GA]2 [GA]2 [GA] | d2- d(A/F/) .D.F.D.A, | %36
 (!>!F.G)(!>!^A.B) (!>!^d.e)(!>!f.g) | A4 G4 | (G4 F2) z2 || z!mp! [DF][DF][DF] z [DF][DF][DF] | %40
 z [EG][EG][EG] z [EG][EG][EG] | z [EG][EG][EG] z [EG][EG][EG] | z [DF][DF][DF] z [DF][DF][DF] | %43
 ^cFcF cFcF | BFBF BFBF | AFAF AFAF |"_cresc." =FC^GC FCFC | FAFA FAFA || z8 | z8 | z8 | z8 | z8 | %53
 z8 | z8 | z8 | z8 |] %57
V:3
!f! D2 || .G,.G,.G,.G, .G,.G,.G,.G, | .A,.A,.A.A (Ac)(FA) | .G.G.G.G .G.G.G.G | .A.A.A.A (Ac)(FA) | %5
!mp! z GzG z GzD | z FzF z DzD | z!mf! .C.C.C (D.D).D.D | (D.D).D.D (A,.G,).G,.G, | %9
 z CCC (C.B,).A,.C | A,A,F,A, D,!f! z !>!D2 || G,G,G,G, G,G,G,G, | A,A,A,A, A,A,A,A, | %13
 G,G,G,G, G,G,G,G, | A,A,A,A, B,B,B,B, | [G,E]2 z [G,E] [A,C]2 z [A,C] | [F,^D]2 z B, B,2 z B, | %17
 [CE]2 z [CE] [A,C]2 z [A,C] |!f! B,G,B,D GDB,G, | A,F,A,D FDA,F, |!mf!!>(! G,3!mp! B,!>)! C^CD^D | %21
 z CCC z A,A,A, | B, z G, z D, z z2 || z!p! CCC C2 z2 | z B,DB, B,2 z2 | z CCC A,2 z2 | %26
 z B,B,B, B,2 z2 |!mf! ^C/D/E/F/ G z C/D/E/D/ CG, | ^C/D/E/F/ G z C/D/E/D/ CG, | DDEE FFB,B, | %30
 A,A,A,A, G,G,G,G, |!f! F/F/G/G/ A/A/G/G/ F/F/E/E/ D/D/^C/C/ | %32
 D/D/E/E/ F/F/E/E/ D/D/^C/C/ B,/B,/A,/A,/ | B,/B,/^C/C/ D/D/C/C/ B,/B,/G,/G,/ A,/A,/B,/B,/ | %34
 A,/A,/^G,/G,/ A,/A,/G,/G,/ A,/A,/=G,/G,/ F,/F,/E,/E,/ | D,D,D,D, D,D,D,D, | [B,E]2 z2 z4 | %37
 z [DF][DF][DF] z [^CE][CE][CE] | (^C4 D2) z2 || z!mp! B,B,B, z B,B,B, | z B,B,B, z B,B,B, | %41
 z ^CCC z CCC | z A,A,A, z A,A,A, | ^A,A,^CC EECC | DDFF BBFF | A,A,^CC FFCC | %46
"_cresc." B,B,B,B, ^CCB,B, | [A,^C][A,C][A,C][A,C] [A,C][A,C][A,C][A,C] || z8 | z8 | z8 | z8 | z8 | %53
 z8 | z8 | z8 | z8 |] %57
V:4
!f! D2 || .G,.G,.G,.G, .G,.G,.G,.G, | .G,.G,.G,.G, .G,.G,.G,.G, | .G,.G,.G,.G, .G,.G,.G,.G, | %4
 .G,.G,.G,.G, .G,.G,.G,.G, |!mp! .C,2 .C2 .C2 .B,2 | .B,2 .A,2 .A,2 .G,2 |!mf! C,4 B,,4 | %8
 A,,4 ^D,,2 E,,2 | C,4 A,,4 | D,3 A,, D,,!f! z !>!D,2 || G,,G,,G,,G,, G,,G,,G,,G,, | %12
 F,,F,,F,,F,, F,,F,,F,,F,, | E,,E,,E,,E,, E,,E,,E,,E,, | (D,,.E,,).=F,,.^F,, (G,,.^G,,).A,,.B,, | %15
 C,2 z C, F,,2 z F,, | B,,2 z B,, E,2 z E, | A,,2 z A,, D,2 z D, |!f! G,D,G,B, DB,G,D, | %19
 F,D,F,A, DA,F,D, |!mf!!>(! G,3!mp! B,,!>)! C,^C,D,^D, | C,2 z2 D,2 z2 | G, z D, z G,, z z2 || %23
 z!p! F,A,F, D,2 z2 | z G,B,A, G,F,E,D, | z F,A,F, ^D,2 z2 | z E,G,E, B,,2 z2 | %27
!mf! A,,A,,A,,A,, _B,,^C,E,C, | A,,A,,A,,A,, _B,,^C,E,C, | .B,,2 .^C,2 .D,2 .G,,2 | %30
 A,,A,,A,,A,, A,,A,,A,,A,, |!f! D/D/E/E/ F/F/E/E/ D/D/^C/C/ B,/B,/^A,/A,/ | %32
 B,/B,/^C/C/ D/D/C/C/ B,/B,/A,/A,/ G,/G,/F,/F,/ | %33
 G,/G,/A,/A,/ B,/B,/A,/A,/ G,/G,/E,/E,/ F,/F,/G,/G,/ | %34
 A,/A,/^G,/G,/ A,/A,/G,/G,/ A,/A,/=G,/G,/ F,/F,/E,/E,/ | D,D,D,D, D,D,D,D, | G,2 z2 z4 | A,4 A,,4 | %38
 (D,4 D,2) z2 ||!mp! B,,2 z2 B,,2 z2 | E,2 z2 E,2 z2 | A,,2 z2 A,,2 z2 | D,2 z2 D,2 z2 | %43
 F,F,^A,A, ^CCA,A, | B,B,DD FFDD | F,F,A,A, ^CCA,A, |"_cresc." ^C,C,^E,E, ^G,G,C,C, | %47
!f! F,^C,A,,^G,, F,,G,,A,,C, || z8 | z8 | z8 | z8 | z8 | z8 | z8 | z8 | z8 |] %57

